src/svgs/radio-select.svg

<?xml version="1.0" encoding="utf-8"?>
<!-- Generated by IcoMoon.io -->
<!DOCTYPE svg PUBLIC "-//W3C//DTD SVG 1.1//EN" "http://www.w3.org/Graphics/SVG/1.1/DTD/svg11.dtd">
<svg version="1.1" xmlns="http://www.w3.org/2000/svg" xmlns:xlink="http://www.w3.org/1999/xlink" width="32" height="32" viewBox="0 0 32 32">
<path d="M16 3.533c7.267 0 13.133 5.867 13.133 13.133s-5.867 13.133-13.133 13.133-13.133-5.867-13.133-13.133 5.867-13.133 13.133-13.133zM16 1c-8.667 0-15.667 7-15.667 15.667s7 15.667 15.667 15.667 15.667-7 15.667-15.667-7-15.667-15.667-15.667v0zM26.533 16.667c0 5.817-4.716 10.533-10.533 10.533s-10.533-4.716-10.533-10.533c0-5.817 4.716-10.533 10.533-10.533s10.533 4.716 10.533 10.533z"></path>
</svg>

<svg xmlns="http://www.w3.org/2000/svg" width="32" height="32" viewBox="0 0 32 32">
    <path d="M16 3.533c7.267 0 13.133 5.867 13.133 13.133S23.266 29.799 16 29.799 2.867 23.932 2.867 16.666 8.734 3.533 16 3.533zM16 1C7.333 1 .333 8 .333 16.667s7 15.667 15.667 15.667 15.667-7 15.667-15.667S24.667 1 16 1zm10.533 15.667C26.533 22.484 21.817 27.2 16 27.2S5.467 22.484 5.467 16.667C5.467 10.85 10.183 6.134 16 6.134s10.533 4.716 10.533 10.533z"/>
</svg>
